packages/studio/public/logo.svg

<svg xmlns="http://www.w3.org/2000/svg" xmlns:xlink="http://www.w3.org/1999/xlink" width="300" height="300" viewBox="0 0 300 300">
  <defs>
    <polygon id="logo-a" points="0 .268 299.733 .268 299.733 301 0 301"/>
  </defs>
  <g fill="none" fill-rule="evenodd" transform="translate(0 -1)">
    <mask id="logo-b" fill="#fff">
      <use xlink:href="#logo-a"/>
    </mask>
    <path fill="#0065FF" d="M278.189785,0.267911603 L21.5433732,0.267911603 C9.64169856,0.267911603 7.1770335e-05,9.94167715 7.1770335e-05,21.883024 L7.1770335e-05,279.385284 C7.1770335e-05,291.327351 9.64169856,301.000036 21.5433732,301.000036 L278.189785,301.000036 C284.146722,301.000036 289.530215,298.582315 293.426986,294.672555 C297.323038,290.763156 299.733445,285.361718 299.733445,279.385284 L299.733445,21.883024 C299.733445,9.94167715 290.092177,0.267911603 278.189785,0.267911603" mask="url(#logo-b)"/>
    <path fill="#B3D4FF" d="M71.1409749,170 L60.6938958,177.418943 L58.3291028,179.087865 C55.7392625,180.606563 54,183.395373 54,186.606958 C54,189.593563 55.5138558,192.232507 57.8164553,193.800922 L57.8164553,193.850639 L143.619833,254.734472 C144.007374,255.083207 144.433382,255.394029 144.870535,255.66801 C144.883836,255.679813 144.8957,255.693762 144.908642,255.693762 C145.121106,255.817519 145.333571,255.941633 145.546395,256.054301 C145.584502,256.06682 145.609308,256.078623 145.646696,256.103303 C145.846938,256.203095 146.047179,256.290368 146.260003,256.377641 C146.322197,256.401964 146.384391,256.414125 146.447303,256.439877 C146.634962,256.513917 146.822621,256.577583 147.010281,256.639104 C147.110222,256.663426 147.210522,256.689178 147.310463,256.713143 C147.473317,256.750699 147.635811,256.801131 147.810888,256.838688 C147.948576,256.863367 148.098848,256.875171 148.249119,256.900208 C148.373865,256.92453 148.511554,256.950641 148.637019,256.962444 C148.912037,256.988197 149.199637,257 149.475015,257 L149.50018,257 L149.524626,257 C149.812586,257 150.087963,256.988197 150.3637,256.962444 C150.500669,256.950641 150.626494,256.92453 150.751241,256.900208 C150.901512,256.875171 151.051783,256.863367 151.188753,256.838688 C151.364189,256.801131 151.527043,256.750699 151.702119,256.713143 C151.789837,256.689178 151.890138,256.663426 151.990079,256.639104 C152.177379,256.577583 152.365757,256.513917 152.565639,256.439877 C152.615609,256.414125 152.678163,256.401964 152.740356,256.377641 C152.95318,256.290368 153.153422,256.203095 153.353664,256.103303 C153.391411,256.091142 153.42808,256.06682 153.465828,256.054301 C153.678652,255.941633 153.879253,255.817519 154.091358,255.705566 C154.103941,255.693762 154.117602,255.679813 154.142048,255.66801 C154.354153,255.530304 154.554754,255.394029 154.767578,255.24452 C154.767578,255.232716 154.767578,255.232716 154.779442,255.232716 C154.979684,255.071404 155.180644,254.907945 155.380526,254.734472 L241.184623,193.850639 L241.184623,193.800922 C243.486144,192.232507 245,189.593563 245,186.606958 C245,183.395373 243.261456,180.606563 240.671257,179.087865 L238.307183,177.418943 L227.859385,170"/>
    <path fill="#DEEBFF" d="M71.6532961,136 L60.6935489,143.837146 L58.3287514,145.517204 C55.7389063,147.047019 54,149.855522 54,153.091695 C54,156.099802 55.5134992,158.758422 57.816103,160.338317 L57.816103,160.388038 L71.1406477,169.905242 L143.619642,221.717168 C144.007184,222.069177 144.433193,222.382273 144.870706,222.65826 C144.883648,222.67015 144.895511,222.68348 144.908453,222.68348 C145.120918,222.808503 145.333743,222.933165 145.546208,223.047379 C145.584315,223.059269 145.609121,223.071879 145.646509,223.096379 C145.846751,223.196541 146.046993,223.285174 146.259818,223.373086 C146.322371,223.397586 146.384564,223.409476 146.447118,223.435777 C146.634777,223.510358 146.822437,223.57377 147.010096,223.636102 C147.110037,223.660962 147.210338,223.686183 147.310639,223.710683 C147.473133,223.748874 147.635628,223.798955 147.810705,223.836786 C147.948394,223.861286 148.098665,223.874257 148.248937,223.899478 C148.374043,223.923978 148.511732,223.949559 148.636838,223.962169 C148.911856,223.98739 149.199817,224 149.474835,224 L149.5,224 L149.524446,224 C149.812406,224 150.087784,223.98739 150.363521,223.962169 C150.500491,223.949559 150.626317,223.923978 150.751063,223.899478 C150.901335,223.874257 151.051606,223.861286 151.188576,223.836786 C151.364372,223.798955 151.527226,223.748874 151.701944,223.710683 C151.789662,223.686183 151.889963,223.660962 151.989904,223.636102 C152.177204,223.57377 152.365582,223.510358 152.565465,223.435777 C152.615436,223.409476 152.677989,223.397586 152.740542,223.373086 C152.953007,223.285174 153.153249,223.196541 153.353491,223.096379 C153.391239,223.083769 153.427908,223.059269 153.465655,223.047379 C153.67848,222.933165 153.879441,222.808503 154.091547,222.696091 C154.104129,222.68348 154.117431,222.67015 154.141877,222.65826 C154.353982,222.519546 154.554943,222.382273 154.767409,222.23167 C154.767409,222.21978 154.767409,222.21978 154.779632,222.21978 C154.979514,222.056566 155.180475,221.892632 155.380358,221.717168 L227.859352,169.905242 L241.184616,160.388038 L241.184616,160.338317 C243.486501,158.758422 245,156.099802 245,153.091695 C245,149.855522 243.261813,147.047019 240.671249,145.517204 L238.30717,143.837146 L227.345985,136"/>
    <path fill="#8FBEFF" d="M151.182384,237.823562 C151.045888,237.86137 150.896135,237.873613 150.746383,237.899538 C150.622067,237.911421 150.496676,237.937346 150.36018,237.949589 C150.085037,237.974074 149.810969,238 149.524003,238 L149.499642,238 L149.474564,238 C149.200137,238 148.91353,237.974074 148.639462,237.949589 C148.51443,237.937346 148.377216,237.911421 148.2529,237.899538 C148.103148,237.873613 147.953396,237.86137 147.816183,237.823562 C147.641711,237.799076 147.479778,237.749025 147.317486,237.711217 C147.21789,237.686372 147.117936,237.661166 147.017982,237.636321 C146.831329,237.574027 146.644318,237.510654 146.457306,237.436117 C146.394611,237.411272 146.332632,237.385346 146.270654,237.373464 C146.058564,237.284885 145.859014,237.185143 145.659105,237.084321 C145.622205,237.072438 145.597485,237.059836 145.559509,237.047953 C145.34742,236.933808 145.135689,236.809581 144.923958,236.684274 C144.911061,236.670951 144.89888,236.670951 144.885983,236.659068 C144.449981,236.383249 144.025803,236.070341 143.6396,235.718544 L61,176.468744 L71.411006,169 L143.6396,220.781057 C144.025803,221.132493 144.449981,221.445761 144.885983,221.721221 C144.89888,221.733104 144.911061,221.746787 144.923958,221.746787 C145.135689,221.871734 145.34742,221.996321 145.559509,222.110106 C145.597485,222.122348 145.622205,222.134951 145.659105,222.159436 C145.859014,222.259178 146.058564,222.347757 146.270654,222.435977 C146.332632,222.460462 146.394611,222.472344 146.457306,222.49827 C146.644318,222.572806 146.831329,222.63618 147.017982,222.698834 C147.117936,222.723319 147.21789,222.748885 147.317486,222.77337 C147.479778,222.811538 147.641711,222.861229 147.816183,222.899397 C147.953396,222.923883 148.103148,222.936485 148.2529,222.962051 C148.377216,222.986536 148.51443,223.011742 148.639462,223.024344 C148.91353,223.04991 149.200137,223.062513 149.474564,223.062513 L149.499642,223.062513 L149.524003,223.062513 C149.810969,223.062513 150.085037,223.04991 150.36018,223.024344 C150.496676,223.011742 150.622067,222.986536 150.746383,222.962051 C150.896135,222.936485 151.045888,222.923883 151.182384,222.899397 C151.357215,222.861229 151.519506,222.811538 151.693978,222.77337 C151.781393,222.748885 151.881347,222.723319 151.980943,222.698834 C152.167596,222.63618 152.354966,222.572806 152.554516,222.49827 C152.604314,222.472344 152.666651,222.460462 152.72863,222.435977 C152.940719,222.347757 153.14027,222.259178 153.339462,222.159436 C153.377437,222.146834 153.413979,222.122348 153.451597,222.110106 C153.663686,221.996321 153.863594,221.871734 154.074967,221.759389 C154.087506,221.746787 154.100762,221.733104 154.125482,221.721221 C154.336855,221.582591 154.536763,221.445761 154.748852,221.295249 C154.748852,221.283006 154.748852,221.283006 154.760675,221.283006 C154.960225,221.11989 155.160492,220.956055 155.359684,220.781057 L227.588277,169 L238,176.468744 L155.359684,235.718544 C155.160492,235.895342 154.960225,236.057738 154.760675,236.220853 L154.748852,236.220853 C154.536763,236.383249 154.336855,236.521879 154.125482,236.659068 C154.100762,236.670951 154.087506,236.670951 154.074967,236.684274 C153.863594,236.809581 153.663686,236.933808 153.451597,237.03463 C153.413979,237.059836 153.377437,237.072438 153.339462,237.084321 C153.14027,237.185143 152.940719,237.284885 152.72863,237.373464 C152.666651,237.385346 152.604314,237.411272 152.554516,237.436117 C152.354966,237.510654 152.167596,237.574027 151.980943,237.636321 C151.881347,237.661166 151.781393,237.686372 151.693978,237.711217 C151.519506,237.749025 151.357215,237.799076 151.182384,237.823562"/>
    <path fill="#B2D0FF" d="M151.182384,204.825199 C151.045888,204.86281 150.896135,204.874989 150.746383,204.900779 C150.622067,204.9126 150.496676,204.938032 150.36018,204.950569 C150.085037,204.974926 149.810969,205 149.524003,205 L149.499642,205 L149.474564,205 C149.200137,205 148.91353,204.974926 148.639462,204.950569 C148.51443,204.938032 148.377216,204.9126 148.2529,204.900779 C148.103148,204.874989 147.953396,204.86281 147.816183,204.825199 C147.641711,204.800842 147.479778,204.751053 147.317486,204.713442 C147.21789,204.688726 147.117936,204.662936 147.017982,204.638578 C146.831329,204.576968 146.644318,204.513209 146.457306,204.439062 C146.394611,204.414705 146.332632,204.389273 146.270654,204.376736 C146.058564,204.289336 145.859014,204.189398 145.659105,204.089819 C145.622205,204.077282 145.597485,204.065462 145.559509,204.053283 C145.34742,203.940093 145.135689,203.815798 144.923958,203.691862 C144.911061,203.67825 144.89888,203.67825 144.885983,203.666071 C144.449981,203.392408 144.025803,203.080418 143.6396,202.731175 L61,143.791518 L71.9218833,136 L143.6396,187.148138 C144.025803,187.498097 144.449981,187.809371 144.885983,188.083751 C144.89888,188.095571 144.911061,188.095571 144.923958,188.108825 C145.135689,188.233477 145.34742,188.357056 145.559509,188.470604 C145.597485,188.482425 145.622205,188.494962 145.659105,188.506782 C145.859014,188.607078 146.058564,188.706657 146.270654,188.794415 C146.332632,188.806236 146.394611,188.832384 146.457306,188.856742 C146.644318,188.930889 146.831329,188.993931 147.017982,189.056258 C147.117936,189.080615 147.21789,189.105689 147.317486,189.130405 C147.479778,189.168016 147.641711,189.217805 147.816183,189.242162 C147.953396,189.280131 148.103148,189.29231 148.2529,189.317742 C148.377216,189.329921 148.51443,189.355353 148.639462,189.367532 C148.91353,189.391889 149.200137,189.417679 149.474564,189.417679 L149.499642,189.417679 L149.524003,189.417679 C149.810969,189.417679 150.085037,189.391889 150.36018,189.367532 C150.496676,189.355353 150.622067,189.329921 150.746383,189.317742 C150.896135,189.29231 151.045888,189.280131 151.182384,189.242162 C151.357215,189.217805 151.519506,189.168016 151.693978,189.130405 C151.781393,189.105689 151.881347,189.080615 151.980943,189.056258 C152.167596,188.993931 152.354966,188.930889 152.554516,188.856742 C152.604314,188.832384 152.666651,188.806236 152.72863,188.794415 C152.940719,188.706657 153.14027,188.607078 153.339462,188.506782 C153.377437,188.494962 153.413979,188.482425 153.451597,188.457351 C153.663686,188.357056 153.863594,188.233477 154.074967,188.108825 C154.087506,188.095571 154.100762,188.095571 154.125482,188.083751 C154.336855,187.947277 154.536763,187.809371 154.748852,187.647824 L154.760675,187.647824 C154.960225,187.48556 155.160492,187.324013 155.359684,187.148138 L227.076684,136 L238,143.791518 L155.359684,202.731175 C155.160492,202.906334 154.960225,203.068597 154.760675,203.230145 L154.748852,203.230145 C154.536763,203.392408 154.336855,203.529598 154.125482,203.666071 C154.100762,203.67825 154.087506,203.67825 154.074967,203.691862 C153.863594,203.815798 153.663686,203.940093 153.451597,204.039672 C153.413979,204.065462 153.377437,204.077282 153.339462,204.089819 C153.14027,204.189398 152.940719,204.289336 152.72863,204.376736 C152.666651,204.389273 152.604314,204.414705 152.554516,204.439062 C152.354966,204.513209 152.167596,204.576968 151.980943,204.638578 C151.881347,204.662936 151.781393,204.688726 151.693978,204.713442 C151.519506,204.751053 151.357215,204.800842 151.182384,204.825199"/>
    <path fill="#FFF" d="M150.851541,48.1122215 C151.152084,48.1620578 151.451188,48.2240844 151.739867,48.2990182 C151.789478,48.3119255 151.839448,48.3241157 151.890138,48.3370229 C152.61525,48.5363684 153.303334,48.8361037 153.941087,49.2100558 L153.95367,49.2100558 C154.391901,49.4721449 154.817189,49.7718802 155.204731,50.1085446 L240.671257,110.900671 C243.261456,112.42301 245,115.217791 245,118.437436 C245,121.43192 243.486144,124.077192 241.184264,125.650085 L241.184264,125.687014 L227.345659,135.532028 L155.380526,186.728322 C155.180285,186.904004 154.979324,187.066062 154.779442,187.228478 L154.767578,187.228478 C154.554754,187.390178 154.353793,187.528214 154.141688,187.664816 C154.117242,187.676647 154.103941,187.676647 154.091358,187.689913 C153.879253,187.814325 153.678292,187.938378 153.465468,188.038409 C153.427721,188.063865 153.391052,188.076414 153.353304,188.088245 C153.153062,188.188277 152.95318,188.288308 152.740356,188.376149 C152.677803,188.387981 152.61525,188.413795 152.565639,188.438534 C152.365397,188.512751 152.177379,188.575853 151.989719,188.63788 C151.890138,188.662619 151.789478,188.687716 151.70176,188.712096 C151.527043,188.750101 151.364189,188.799937 151.188393,188.824318 C151.051783,188.861964 150.901512,188.874513 150.751241,188.899969 C150.626135,188.912159 150.50031,188.937615 150.3637,188.949805 C150.087603,188.974185 149.812226,189 149.524626,189 L149.49982,189 L149.474655,189 C149.199637,189 148.911678,188.974185 148.63666,188.949805 C148.511554,188.937615 148.373865,188.912159 148.248759,188.899969 C148.098488,188.874513 147.948217,188.861964 147.810888,188.824318 C147.635452,188.799937 147.472957,188.750101 147.310463,188.712096 C147.210522,188.687716 147.109862,188.662619 147.009921,188.63788 C146.822262,188.575853 146.634603,188.512751 146.447303,188.438534 C146.384391,188.413795 146.322197,188.387981 146.259644,188.376149 C146.04682,188.288308 145.846938,188.188277 145.646336,188.088245 C145.608948,188.076414 145.584143,188.063865 145.546395,188.052033 C145.333571,187.938378 145.120747,187.814325 144.908282,187.689913 C144.89534,187.676647 144.883477,187.676647 144.870535,187.664816 C144.433023,187.390178 144.007015,187.078611 143.619474,186.728322 L71.6532629,135.532028 L57.8160958,125.687014 L57.8160958,125.650085 C55.5138558,124.077192 54,121.43192 54,118.437436 C54,115.217791 55.7392625,112.42301 58.3287433,110.900671 L143.807852,50.1085446 C144.194674,49.7718802 144.60774,49.4721449 145.058553,49.2100558 L145.070776,49.2100558 C145.696666,48.8361037 146.384391,48.5363684 147.109862,48.3370229 C147.160192,48.3241157 147.210522,48.3119255 147.260133,48.2990182 C147.548093,48.2240844 147.848635,48.1620578 148.148459,48.1122215 C148.236536,48.1000313 148.323895,48.087124 148.411253,48.0749338 C148.773989,48.0250975 149.137084,48 149.49982,48 C149.874779,48 150.237874,48.0250975 150.588387,48.0749338 C150.676824,48.087124 150.763104,48.1000313 150.851541,48.1122215"/>
  </g>
</svg>

<svg xmlns="http://www.w3.org/2000/svg" xmlns:xlink="http://www.w3.org/1999/xlink" width="300" height="300"><defs><path id="A" d="M0 .268h299.733V301H0z"/></defs><g fill-rule="evenodd" transform="translate(0 -1)"><mask id="B" fill="#fff"><use xlink:href="#A"/></mask><path fill="#0065ff" d="M278.2.268H21.543C9.642.268 0 9.942 0 21.883v257.502C0 291.327 9.642 301 21.543 301H278.2c5.957 0 11.34-2.418 15.237-6.327a21.58 21.58 0 0 0 6.306-15.287V21.883c0-11.94-9.64-21.615-21.544-21.615" mask="url(#B)"/><path fill="#b3d4ff" d="M71.14 170l-10.447 7.42-2.365 1.67c-2.6 1.52-4.33 4.308-4.33 7.52 0 2.987 1.514 5.626 3.816 7.194v.05l85.803 60.884a9.08 9.08 0 0 0 1.251.934c.013.012.025.026.038.026l.638.36a.37.37 0 0 1 .1.049l.613.274c.062.024.124.036.187.062l.563.2.3.074.5.126.438.062.388.062.838.038h.05l.84-.038c.137-.012.263-.038.388-.062l.438-.062.513-.126.288-.074.576-.2c.05-.026.113-.038.175-.062l.613-.274c.038-.012.074-.036.112-.05l.626-.35c.013-.012.026-.026.05-.038l.626-.423.613-.5 85.804-60.884v-.05c2.302-1.568 3.815-4.207 3.815-7.194 0-3.212-1.74-6-4.33-7.52l-2.364-1.67L227.86 170"/><path fill="#deebff" d="M71.653 136l-13.325 9.517c-2.6 1.53-4.33 4.338-4.33 7.574 0 3.008 1.513 5.667 3.816 7.247v.05l13.325 9.517 72.48 51.812c.388.352.814.665 1.25.94.013.012.025.025.038.025l.638.364a.36.36 0 0 1 .1.049l.613.277.187.063.563.2.3.075.5.126.438.063.388.063.838.038h.05l.84-.038c.137-.013.263-.038.388-.063l.438-.063.513-.126.288-.075.576-.2c.05-.026.113-.038.175-.063l.613-.277c.038-.013.074-.037.112-.05l.626-.35c.013-.013.026-.026.05-.038l.626-.427.613-.515 85.804-61.38c2.302-1.58 3.815-4.24 3.815-7.247 0-3.236-1.738-6.045-4.33-7.574l-2.364-1.68-10.96-7.837"/><path fill="#8fbeff" d="M151.182 237.824c-.136.038-.286.05-.436.076l-.386.05-.836.05h-.05c-.274 0-.56-.026-.835-.05l-.387-.05-.437-.076c-.174-.024-.336-.075-.5-.112l-.3-.075-.56-.2c-.063-.025-.125-.05-.187-.063l-.612-.29-.1-.036-.636-.364c-.013-.013-.025-.013-.038-.025-.436-.276-.86-.59-1.246-.94L61 176.47 71.41 169l72.23 51.78a8.98 8.98 0 0 0 1.246.94c.013.012.025.026.038.026l.636.363a.36.36 0 0 1 .1.049l.612.277c.062.024.124.036.187.062l.56.2.3.075.5.126.437.063.387.062.835.038h.05l.836-.038c.136-.013.262-.038.386-.062l.436-.063.512-.126.287-.075.574-.2c.05-.026.112-.038.174-.062l.61-.277c.038-.013.075-.037.112-.05l.623-.35c.013-.013.026-.026.05-.038l.623-.426.61-.514 72.23-51.78L238 176.47l-82.64 59.25-.6.502h-.012l-.623.438c-.025.012-.038.012-.05.025l-.623.35a.41.41 0 0 1-.112.05l-.61.29a.7.7 0 0 0-.174.063l-.574.2-.287.075-.512.112"/><path fill="#b2d0ff" d="M151.182 204.825c-.136.038-.286.05-.436.076l-.386.05-.836.05h-.05a9.59 9.59 0 0 1-.835-.049l-.387-.05-.437-.076c-.174-.024-.336-.074-.5-.112l-.3-.075-.56-.2c-.063-.024-.125-.05-.187-.062l-.612-.287-.1-.037-.636-.36c-.013-.014-.025-.014-.038-.026-.436-.274-.86-.586-1.246-.935L61 143.792 71.922 136l71.718 51.148a8.98 8.98 0 0 0 1.246.936c.013.012.025.012.038.025l.636.362.1.036.612.288c.062.012.124.038.187.062l.56.2.3.074.5.112c.137.038.287.05.437.076l.387.05.835.05h.05c.287 0 .56-.026.836-.05l.386-.05.436-.076c.175-.024.337-.074.512-.112l.287-.074.574-.2a.72.72 0 0 1 .174-.062l.61-.288a.41.41 0 0 0 .112-.049c.212-.1.412-.224.623-.35.013-.013.026-.013.05-.025l.623-.436h.012l.6-.5L227.077 136 238 143.792l-82.64 58.94-.6.5h-.012l-.623.436c-.025.012-.038.012-.05.026l-.623.348c-.038.026-.074.038-.112.05l-.61.287a.75.75 0 0 0-.174.062l-.574.2-.287.075-.512.112"/><path fill="#fff" d="M150.852 48.112l.888.187.15.038c.725.2 1.413.5 2.05.873h.013a8.79 8.79 0 0 1 1.251.898L240.67 110.9c2.6 1.522 4.33 4.317 4.33 7.537 0 2.994-1.514 5.64-3.816 7.213v.037l-87.043 61.978c-.024.012-.038.012-.05.025l-.626.348c-.038.025-.074.038-.112.05l-.613.288c-.063.012-.125.038-.175.062l-.576.2-.288.074-.513.112c-.137.038-.287.05-.437.076l-.388.05-.84.05h-.05c-.275 0-.563-.026-.838-.05l-.388-.05-.438-.076c-.175-.024-.338-.074-.5-.112l-.3-.074-.563-.2c-.063-.025-.125-.05-.188-.062l-.613-.288-.1-.036-.638-.362c-.013-.013-.025-.013-.038-.025a9.01 9.01 0 0 1-1.251-.936L57.816 125.65c-2.302-1.573-3.816-4.218-3.816-7.213 0-3.22 1.74-6.014 4.33-7.537l85.48-60.792c.387-.337.8-.636 1.25-.898h.012a8.25 8.25 0 0 1 2.039-.873l.15-.038.888-.187.263-.037A7.99 7.99 0 0 1 149.5 48a7.73 7.73 0 0 1 1.089.075l.263.037"/></g></svg>
